X:1
T:Title
%%score { ( 1 2 ) | ( 3 4 ) }
L:1/8
Q:1/4=96
M:4/4
K:Ab
V:1 treble nm="Grand Piano"
V:2 treble 
V:3 bass 
V:4 bass 
V:1
 z A,FG [EA]2 [Ec]2 | [FB]2 [DFA][DF] [CA]2 [CE]2 | z A,FG [EA]2 [Ec]2 | [=Dc]2 BA z2 _D2 | %4
 z A,FG [EA]2 [Ec]2 | [=Ed]2 [Cc]B [DEB]2 [CFA]2 | .[DFA]2 =E-[EF] _E2 c2 | c2 z2 z4 | c2 c>d c4 | %9
 A2 [FA]>[=EB] [_EA]4 | [CE]2 [CF]>[DG] [EA]2 [Ec]2 | z4 B4 | E2 A>A c4 | e2 B>c [Fd]4 | %14
 [=Ed]2 [EA]>[EB] c _E3 | %15
 c2 B>B A4[Q:1/4=95][Q:1/4=93][Q:1/4=92][Q:1/4=90][Q:1/4=89][Q:1/4=88][Q:1/4=86][Q:1/4=85][Q:1/4=83][Q:1/4=82][Q:1/4=80][Q:1/4=79][Q:1/4=78][Q:1/4=76][Q:1/4=75][Q:1/4=73] |] %16
V:2
 [CE]2 z2 z4 | x8 | [CE]2 z2 z4 | z2 =D2 B4 | [CE]2 z2 z4 | z2 =E2 z4 | z2 .[B,G]2 z4 | %7
 z F, B>[CA] [CA]4 | x8 | x8 | x8 | [=Dc]2 [DF]>[DB] z D _D2 | x8 | x8 | x8 | x8 |] %16
V:3
 z E,[E,A,C][E,A,C] [C,A,]2 [C,A,]2 | [D,A,]2 z A, z E, A,2 | z E,[E,A,C][E,A,C] [C,A,]2 [C,A,]2 | %3
 [B,,A,]2 [B,,A,]2 E2 z2 | z E,[E,A,C][E,A,C] [C,A,]2 [C,A,]2 | [C,G,]2 z D F,2 F,2 | %6
 z A,D,[=D,_C] [E,=C]2 [E,A,E]2 | .[E,A,E]2 [E,G,D]>[A,,E,] [A,,E,]4 | %8
 [A,EA]2 [A,EA]>[A,FA] [A,EA]4 | [A,CE]2[K:bass] [D,D]>[D,D] [A,C]4 | %10
 [A,,A,]2 [A,,A,]>[B,,A,] [C,A,]2 [A,,A,]2 | [B,,A,]2 [B,,A,]>[B,,A,] .E2 z2 | %12
 [A,C]2 [A,CE]>[A,CE] [A,EA]4 | [A,C_G]2 [A,CG]>[A,EG][K:bass] [D,D]4 | %14
 [D,D]2 [D,D]>[D,B,] [E,A,E] [E,A,C]3 | [E,A,E]2 [E,DE]>[E,DE] [A,CE]4 |] %16
V:4
 A,,4 z4 | z2 D,2 A,,2 z2 | A,,4 z4 | z4 [E,G,]4 | A,,4 z4 | z2 C,2 z4 | D,2 z2 z4 | x8 | x8 | %9
 x2[K:bass] x6 | x8 | z4 [E,G,]4 | x8 | x4[K:bass] x4 | x8 | x8 |] %16

